svg/weather/light_snow_fill.svg

<?xml version="1.0" encoding="UTF-8"?>
<svg width="24px" height="24px" viewBox="0 0 24 24" version="1.1" xmlns="http://www.w3.org/2000/svg" xmlns:xlink="http://www.w3.org/1999/xlink">
    <title>light_sonw_fill</title>
    <g id="Icon" stroke="none" stroke-width="1" fill="none" fill-rule="evenodd">
        <g id="Weather" transform="translate(-481.000000, -144.000000)" fill-rule="nonzero">
            <g id="light_sonw_fill" transform="translate(481.000000, 144.000000)">
                <path d="M24,0 L24,24 L0,24 L0,0 L24,0 Z M12.5935,23.2578 L12.5819,23.2595 L12.5109,23.295 L12.4919,23.2987 L12.4767,23.295 L12.4057,23.2595 C12.3958,23.2564 12.387,23.259 12.3821,23.2649 L12.378,23.2758 L12.3609,23.7031 L12.3659,23.7235 L12.3769,23.7357 L12.4805,23.8097 L12.4953,23.8136 L12.5071,23.8097 L12.6107,23.7357 L12.6233,23.7197 L12.6267,23.7031 L12.6096,23.2758 C12.6076,23.2657 12.601,23.2593 12.5935,23.2578 Z M12.8584,23.1453 L12.8445,23.1473 L12.6598,23.2397 L12.6499,23.2499 L12.6472,23.2611 L12.6651,23.6906 L12.6699,23.7034 L12.6784,23.7105 L12.8793,23.8032 C12.8914,23.8069 12.9022,23.803 12.9078,23.7952 L12.9118,23.7812 L12.8777,23.1665 C12.8753,23.1546 12.8674,23.147 12.8584,23.1453 Z M12.143,23.1473 C12.1332,23.1424 12.1222,23.1453 12.1156,23.1526 L12.1099,23.1665 L12.0758,23.7812 C12.0751,23.7927 12.0828,23.8019 12.0926,23.8046 L12.1083,23.8032 L12.3092,23.7105 L12.3186,23.7024 L12.3225,23.6906 L12.3404,23.2611 L12.3372,23.2485 L12.3278,23.2397 L12.143,23.1473 Z" id="MingCute"></path>
                <path d="M12.0001,13 C12.5524,13 13.0001,13.4477 13.0001,14 L13.0001,15.2679 L14.0982,14.634 C14.5765,14.3578 15.1881,14.5217 15.4642,15 C15.7403,15.4783 15.5765,16.0899 15.0982,16.366 L14.0001,17 L15.0982,17.634 C15.5765,17.9101 15.7404,18.5217 15.4642,19 C15.1881,19.4783 14.5765,19.6422 14.0982,19.366 L13.0001,18.732 L13.0001,20 C13.0001,20.5523 12.5524,21 12.0001,21 C11.4478,21 11.0001,20.5523 11.0001,20 L11.0001,18.732 L9.90202,19.366 C9.42373,19.6422 8.81214,19.4783 8.536,19 C8.25985,18.5217 8.42373,17.9101 8.90202,17.634 L10.0001,17 L8.90205,16.366 C8.42376,16.0899 8.25989,15.4783 8.53603,15 C8.81217,14.5217 9.42376,14.3578 9.90205,14.634 L11.0001,15.2679 L11.0001,14 C11.0001,13.4477 11.4478,13 12.0001,13 Z M11.5,2 C14.2856,2 16.66,3.75154 17.5856,6.21198 C20.13,6.90766 22,9.23462 22,12 C22,14.7897 20.0961,17.1347 17.5169,17.8066 C17.4499,17.5247 17.3423,17.2527 17.1967,17 C17.7137,16.1025 17.7512,14.9615 17.1961,14 C16.641,13.0385 15.6341,12.5006 14.5984,12.4995 C14.0796,11.6031 13.1102,11 12,11 C10.8898,11 9.92042,11.6031 9.40164,12.4995 C8.36592,12.5006 7.35898,13.0385 6.80387,14 C6.24877,14.9615 6.28636,16.1025 6.80328,17 C6.62977,17.3012 6.51026,17.6299 6.44904,17.97 C3.94686,17.6957 2,15.5752 2,13 C2,10.9486 3.23468,9.18749 5.00053,8.41614 C5.04543,4.86494 7.93814,2 11.5,2 Z" id="形状" fill="#09244B"></path>
            </g>
        </g>
    </g>
</svg>

<svg xmlns="http://www.w3.org/2000/svg" width="24" height="24"><g fill="none" fill-rule="nonzero"><path d="M24 0v24H0V0h24ZM12.594 23.258l-.012.002-.071.035-.02.004-.014-.004-.071-.036c-.01-.003-.019 0-.024.006l-.004.01-.017.428.005.02.01.013.104.074.015.004.012-.004.104-.074.012-.016.004-.017-.017-.427c-.002-.01-.009-.017-.016-.018Zm.264-.113-.014.002-.184.093-.01.01-.003.011.018.43.005.012.008.008.201.092c.012.004.023 0 .029-.008l.004-.014-.034-.614c-.003-.012-.01-.02-.02-.022Zm-.715.002a.023.023 0 0 0-.027.006l-.006.014-.034.614c0 .012.007.02.017.024l.015-.002.201-.093.01-.008.003-.011.018-.43-.003-.012-.01-.01-.184-.092Z"/><path fill="#09244B" d="M12 13a1 1 0 0 1 1 1v1.268l1.098-.634a1 1 0 1 1 1 1.732L14 17l1.098.634a1 1 0 1 1-1 1.732L13 18.732V20a1 1 0 1 1-2 0v-1.268l-1.098.634a1 1 0 1 1-1-1.732L10 17l-1.098-.634a1 1 0 1 1 1-1.732l1.098.634V14a1 1 0 0 1 1-1Zm-.5-11a6.502 6.502 0 0 1 6.086 4.212 6.002 6.002 0 0 1-.07 11.595 3.01 3.01 0 0 0-.32-.807 2.999 2.999 0 0 0-2.598-4.5 2.999 2.999 0 0 0-5.196 0A2.999 2.999 0 0 0 6.803 17c-.173.301-.293.63-.354.97a5 5 0 0 1-1.448-9.554A6.5 6.5 0 0 1 11.5 2Z"/></g></svg>
